X: 82
T:Orange In Bloom
M:3/4
L:1/4
S:Chris Ryall
R:Valse
N:OK, so it's actually English (thanks Boz!), but it's a good Valse
N:anyway ..
Z:Steve Mansfield
K:G
D | E>GE | DGA | BdB | A2B/A/ | GFE | DGA |
BGG |1G2 :|2 G3 |: B>AB/c/ | dcB | AGA | Bcd | edB | AGA |
BAG | E2D | EGE | DGA | BdB | A2B/A/ | GFE | DGA | BGG | G3 :|
<end>
<start>
